X: 25
M:2/4
L:1/16
K:G
d2|gfge decd|Bcdc BcAB|GFGA BcdB|AGFE D2d2|
gfge decd|Bcdc BcAB|GFGA BcAB|G2B2 G2:|
|:dc|BcAB G2A2|BcAB G2A2|BcdB edcB|AGAB A2d2|

